X: 1
T: Meeting Of The Waters, The
M: 4/4
L: 1/8
R: reel
K: Dmaj
|AB|:d2 df A2 d>c|Bd BG A2 d>e|fa Aa gf ed|f4 e2 AB|
|d2 df A2 d>c|Bd BG A2 d>e|fa gf gA ce|1 d2 {e}d2 d2 AB:|2 d2 {e}d2 d2 a>g:|
|:f2 a>f df fd|Bg gB A2 a>g|fa Aa gf ed|f4 e2 a>g|
|f2 a>f df fd|Bg gB A2 d>e|fa gf gA ce|1 d2 {e}d2 d2 a>g:|2 d2 {e}d2 d4||
